X:1
T:Daffy-Dill
T:Daffy-Dill
T:Edith Althoff
T:Copyright 1922 by Jack Mills Inc
T:Copyright 1922 by Jack Mills Inc
T:Copyright 1922 by Jack Mills Inc
T:Copyright 1922 by Jack Mills Inc
T:Copyright 1922 by Jack Mills Inc
C:Edith Althoff
Z:Copyright 1922 by Jack Mills Inc
%%score { 1 | 2 }
L:1/8
Q:1/4=180
M:2/2
K:Db
V:1 treble nm="Piano" snm="Pno."
V:2 treble 
V:1
"^Allegro moderato"!f!!8va(! (3a'b'a' f'>d'' b'>a'f'>e'!8va)! | (3aba f>d' b>af>e | %2
 (3ABA F>d B>AF>E | A,2 !>![Acga]2 !>![dfad']2 z2 |:!mf! z2 .A2 z2 .A2 :|!mf! z A/c/ B>=G A>cB>G | %6
 A>Bc>g .b2 z2 | z A/c/ B>=G A>cB>G | A>Bc>g .b2 z2 | z a/b/ a>g .d'2 .c'2 | z b/c'/ b>f .a2 .g2 | %11
 z f/g/ f>c .e2 .d2 | z3/2 c<ec/ .B2 .=A2 | z A/c/ B>=G A>cB>G | A>Bc>g .b2 z2 | %15
 z A/c/ B>=G A>cB>G | A>Bc>g .b2 z2 | z a/b/ a>g .d'2 .c'2 | z b/c'/ b>f a>fd>B | %19
 .Az/a/ !>!B4 .c2 | d4 !>![dfad']2 z2 |: %21
[K:C]!f!!8va(! g/c'/e'/g'/ c''/e''/.g'' ^f/c'/_e'/^f'/ c''/_e''/.^f'' | %22
 g/c'/=e'/g'/ c''/e''/.g'' a/^c'/e'/a'/ ^c''/e''/.a'' | z3/2 d''<b'a'/ (3^f'a'f' e'>d'!8va)! | %24
 (3e'g'e' d'>b (3gbg e>d |!8va(! g/c'/e'/g'/ c''/e''/.g'' ^f/c'/_e'/^f'/ c''/_e''/.^f'' | %26
 g/c'/=e'/g'/ c''/e''/.g'' a/^c'/e'/a'/ ^c''/e''/.a'' | %27
 (3c'''a''e'' (3[g'c'']a'e'!8va)! (3[gc']ae (3[Gc]AG | C2 !>![DGB]2 !>![egc']2 z2 :: %29
[K:Ab]!mf! (3c'ga f>a e>a =d>e | (3afe c>A F>E C>E | (3=DFA B>=d f>a d>c' | b8 | %33
 (3bc'b g>f (3bc'b g>f | (3fgf e>=d (3c_dc B>G | (3afe (3cAF (3ECE (3FEF | %36
 (3AFA (3BAB (3cBc (3fef | (3c'ga f>a e>a =d>e | (3afe c>A F>E C>E | (3=DFA B>=d f>a _d>c' | b8 | %41
 (3bc'b e>e' (3bc'b e>e' | (3bc'b e>e' (3bc'b e>e' | (3afe (3cAF (3ECE (3FEF | %44
 .f2 !>![EGde]2 !>![Acea]2 z2 :| %45
[K:C]!f!!8va(! g/c'/e'/g'/ c''/e''/.g'' ^f/c'/_e'/^f'/ c''/_e''/.^f'' | %46
 g/c'/=e'/g'/ c''/e''/.g'' a/^c'/e'/a'/ ^c''/e''/.a'' | z3/2 d''<b'a'/ (3^f'a'f' e'>d'!8va)! | %48
 (3e'g'e' d'>b (3gbg e>d |!8va(! g/c'/e'/g'/ c''/e''/.g'' ^f/c'/_e'/^f'/ c''/_e''/.^f'' | %50
 g/c'/=e'/g'/ c''/e''/.g'' a/^c'/e'/a'/ ^c''/e''/.a'' | %51
 (3c'''a''e'' (3[g'c'']a'e'!8va)! (3[gc']ae (3[Gc]AG | C2 !>![DGB]2 !>![egc']2 z2 || %53
[K:Db]!mf! z A/c/ B>=G A>cB>G | A>Bc>g .b2 z2 | z A/c/ B>=G A>cB>G | A>Bc>g .b2 z2 | %57
 z a/b/ a>g .d'2 .c'2 | z b/c'/ b>f .a2 .g2 | z f/g/ f>c .e2 .d2 | z3/2 c<ec/ .B2 .=A2 | %61
 z A/c/ B>=G A>cB>G | A>Bc>g .b2 z2 | z A/c/ B>=G A>cB>G | A>Bc>g .b2 z2 | z a/b/ a>g .d'2 .c'2 | %66
 z b/c'/ b>f a>fd>B | .Az/a/ !>!B4 .c2 | d4 !>![dfad']2 z2 || %69
!f!"^Coda"!8va(! (3a'b'a' f'>d'' b'>a'f'>e'!8va)! | (3aba f>d' b>af>e | (3ABA F>d B>AF>E | %72
 A,2 !>![Acga]2 !>![dfad']2 z2 |] %73
V:2
 [fad']4 [dfb]4 | [FAd]4 [DFB]4 |[K:bass] [F,A,D]4 [D,F,B,]4 | z2 !>![A,,A,]2 !>![D,,D,]2 z2 |: %4
 .D,,2 .[A,DF]2 .A,,,2 .[A,DF]2 :| [D,,D,]2 [A,DF]2 [A,,,A,,]2 [A,DF]2 | %6
 [E,,E,]2 [A,CG]2 [A,,,A,,]2 [A,CG]2 | [D,,D,]2 [A,DF]2 [A,,,A,,]2 [A,DF]2 | %8
 [E,,E,]2 [A,CG]2 [A,,,A,,]2 [A,CG]2 | [D,,D,]2 [A,DF]2 [A,,,A,,]2 [A,DF]2 | %10
 [G,,,G,,]2 [G,B,E]2 [G,,G,]2 [B,DG]2 | [F,,F,]2 [=A,CEF]2 [B,,,B,,]2 [B,DF]2 | %12
 [E,,E,]2 [B,D=G]2 [_A,,,_A,,]2 [_A,CE_G]2 | [D,,D,]2 [A,DF]2 [A,,,A,,]2 [A,DF]2 | %14
 [E,,E,]2 [A,CG]2 [A,,,A,,]2 [A,CG]2 | [D,,D,]2 [A,DF]2 [A,,,A,,]2 [A,DF]2 | %16
 [E,,E,]2 [A,CG]2 [A,,,A,,]2 [A,CG]2 | [D,,D,]2 [A,DF]2 [A,,,A,,]2 [A,DF]2 | %18
 [D,,D,]2 [A,DF]2 [D,,D,]2 [A,DF]2 | [A,,,A,,]2 [A,CEG]2 [E,,E,]2 [A,CEG]2 | %20
 [D,,D,]2 [A,DF]2 !>![D,,D,]2 z2 |:[K:C] [G,CE]2 [C,,C,]2 [^F,C_E]2 [C,,C,]2 | %22
 [G,C=E]2 [C,,C,]2 [A,^CEG]2 [A,,,A,,]2 | [=CD^F]2 [D,,D,]2 [CDF]2 [D,,D,]2 | %24
 !arpeggio![G,,D,B,]2 z2 z4 | [G,CE]2 [C,,C,]2 [^F,C_E]2 [C,,C,]2 | %26
 [G,CE]2 .[C,,C,]2 [G,^CG]2 [A,,,A,,]2 | !arpeggio!!>![C,,G,,E,]8 | %28
 z2 !>![G,,F,]2 !>![C,,G,,E,]2 z2 ::[K:Ab] [E,A,C]2 [A,,,A,,]2 [E,A,C]2 [C,,C,]2 | %30
 [E,A,C]2 [A,,,A,,]2 [E,A,C]2 [C,,C,]2 | [=D,F,A,B,]2 [B,,,B,,]2 [F,A,B,=D]2 [B,,,B,,]2 | %32
 [A,B,=DF]2 [B,,,B,,]2 [A,B,DF]2 [B,,,B,,]2 | [B,_DEG]2 [E,,E,]2 [B,DEG]2 [B,,,B,,]2 | %34
 [B,_DEG]2 [E,,E,]2 [B,DE]2 [E,,E,]2 | !arpeggio!!>![A,,C,E,A,]2 z2 z4 | z8 | %37
 [E,A,C]2 [A,,,A,,]2 [E,A,C]2 [C,,C,]2 | [E,A,C]2 [A,,,A,,]2 [E,A,C]2 [C,,C,]2 | %39
 [=D,F,A,B,]2 [B,,,B,,]2 [F,A,B,=D]2 [B,,,B,,]2 | [A,B,=DF]2 [B,,,B,,]2 [F,A,B,D]2 [B,,,B,,]2 | %41
 [B,_DEG]2 [E,,E,]2 [B,DEG]2 [B,,,B,,]2 | [B,DEG]2 [G,,G,]2 [B,DEG]2 [E,,E,]2 | %43
 !arpeggio!!>![A,,C,E,A,]2 z2 z4 | z2 !>![E,G,B,D]2 !arpeggio!!>![A,,E,C]2 z2 :| %45
[K:C] [G,CE]2 [C,,C,]2 [^F,C_E]2 [C,,C,]2 | [G,C=E]2 [C,,C,]2 [A,^CEG]2 [A,,,A,,]2 | %47
 [=CD^F]2 [D,,D,]2 [CDF]2 [D,,D,]2 | !arpeggio![G,,D,B,]2 z2 z4 | %49
 [G,CE]2 [C,,C,]2 [^F,C_E]2 [C,,C,]2 | [G,CE]2 .[C,,C,]2 [G,^CG]2 [A,,,A,,]2 | %51
 !arpeggio!!>![C,,G,,E,]8 | z2 !>![G,,F,]2 !>![C,,G,,E,]2 z2 || %53
[K:Db] [D,,D,]2 [A,DF]2 [A,,,A,,]2 [A,DF]2 | [E,,E,]2 [A,CG]2 [A,,,A,,]2 [A,CG]2 | %55
 [D,,D,]2 [A,DF]2 [A,,,A,,]2 [A,DF]2 | [E,,E,]2 [A,CG]2 [A,,,A,,]2 [A,CG]2 | %57
 [D,,D,]2 [A,DF]2 [A,,,A,,]2 [A,DF]2 | [G,,,G,,]2 [G,B,E]2 [G,,G,]2 [B,DG]2 | %59
 [F,,F,]2 [=A,CEF]2 [B,,,B,,]2 [B,DF]2 | [E,,E,]2 [B,D=G]2 [_A,,,_A,,]2 [_A,CE_G]2 | %61
 [D,,D,]2 [A,DF]2 [A,,,A,,]2 [A,DF]2 | [E,,E,]2 [A,CG]2 [A,,,A,,]2 [A,CG]2 | %63
 [D,,D,]2 [A,DF]2 [A,,,A,,]2 [A,DF]2 | [E,,E,]2 [A,CG]2 [A,,,A,,]2 [A,CG]2 | %65
 [D,,D,]2 [A,DF]2 [A,,,A,,]2 [A,DF]2 | [D,,D,]2 [A,DF]2 [D,,D,]2 [A,DF]2 | %67
 [A,,,A,,]2 [A,CEG]2 [E,,E,]2 [A,CEG]2 | [D,,D,]2 [A,DF]2 !>![D,,D,]2 z2 || %69
[K:treble] [fad']4 [dfb]4 | [FAd]4 [DFB]4 |[K:bass] [F,A,D]4 [D,F,B,]4 | %72
 z2 !>![A,,A,]2 !>![D,,D,]2 z2 |] %73

